X: 112201
T: The HIGHLANDERS IN PARIS
Q: "Strathspey."
R:  Strathspey.
%R: strathspey
B: James Kerr "Merry Melodies" v.1 p.12 s.2 #1
Z: 2017 John Chambers <jc:trillian.mit.edu>
M: C
L: 1/16
K: Em
uB,2 |\
vEuE3 vE3vG uF3uE D2F2 | vEuE3 vE3uF vG3vAuB3u^c |\
d3e(d2B2) AGFE D2F2 | vG3uA BAGF GE3 E2 :|
|: uD2 |\
E3e ve3uf vd3ued2A2 | Bb3 a3g g3ag2e2 |\
d3ed3B AGFE D2F2 | G3A BAGF GE3 E2 :|

%%sep 1 1 500
%%sep 1 1 500

